svg/300/outlined/real_estate_agent-fill.svg

<svg xmlns="http://www.w3.org/2000/svg" width="48" height="48" viewBox="0 -960 960 960"><path d="M249.615-151.616v-297.767h87.231q5.25 0 10.115 1.008 4.866 1.008 10.116 2.608l235.768 87.768q24.462 9.231 41.5 29.077 17.039 19.846 17.039 45.692 0 6.504-4.039 10.714-4.038 4.209-10.5 4.209h-53.383q-25.692 0-51.269-3.692-25.578-3.692-49.886-11.846l-74.538-24.385-10 26.077 76.154 26.384q28.308 9.77 57.846 12.654 29.539 2.885 59.462 2.885h182.691q36.615 0 61.346 26.692 24.731 26.692 24.731 64.538L565.077-60.309l-315.462-91.307Zm-181.92 51.615v-349.382H203.23v349.382H67.694ZM579.23-623.846h36.154v-36.153H579.23v36.153Zm-80 0h36.154v-36.153H499.23v36.153Zm80 80h36.154v-36.153H579.23v36.153Zm-80 0h36.154v-36.153H499.23v36.153ZM695.998-359.23q-10.462-28.385-30.731-47.577-20.269-19.192-53.5-31.807L339.999-539.922h-45.384v-156.692l262.692-187.615 262.692 187.615v337.384H695.998Z"/></svg>

<svg xmlns="http://www.w3.org/2000/svg" width="48" height="48" viewBox="0 -960 960 960"><path d="M249.61-151.62v-297.76h87.24q5.25 0 10.11 1 4.87 1.01 10.12 2.61L592.85-358q24.46 9.23 41.5 29.08 17.03 19.84 17.03 45.69 0 6.5-4.03 10.71-4.04 4.21-10.5 4.21h-53.39q-25.69 0-51.27-3.69-25.57-3.69-49.88-11.85l-74.54-24.38-10 26.08 76.15 26.38q28.31 9.77 57.85 12.66 29.54 2.88 59.46 2.88h182.69q36.62 0 61.35 26.69Q860-186.85 860-149L565.08-60.31l-315.47-91.31ZM67.69-100v-349.38h135.54V-100H67.69Zm511.54-523.85h36.15V-660h-36.15v36.15Zm-80 0h36.15V-660h-36.15v36.15Zm80 80h36.15V-580h-36.15v36.15Zm-80 0h36.15V-580h-36.15v36.15ZM696-359.23q-10.46-28.38-30.73-47.58-20.27-19.19-53.5-31.8L340-539.92h-45.39v-156.69l262.7-187.62L820-696.61v337.38H696Z"/></svg>
